X:51
T:Matthew Malone (is this not Irish by its name?)
Z:Jack Campin - http://www.campin.me.uk
S:Blaikie MS (NLS MS.1578) p17, Blaikie #49
M:3/4
L:1/8
V:1 midi program 1 74
V:2 midi program 1 46 bass middle = d transpose -24
Q:1/4=100
K:D
[V:1] A2|d2 A3  B|d2 A2 B2|A2  F2  ED|D4 
[V:2] z2|D2 d2 d2|f4    g2|f2  a2  A2|d2  D2
%
[V:1] DE|GF3   ED|F4    B2|AB  d2  d2|d4    ||
[V:2] z2|D2 d2 d2|D2 d2 g2|fg  f2  d2|d'2 d2||
%
[V:1] e2|de f2 ed|e4    fe|e2  d2  BA|B4
[V:2] z2|d4    d2|A2 a2 a2|c'2 d'2 d2|g2  G2
%
[V:1] d2|A3  F ED|F2 A3  B|AB  d2  d2|d4    |]
[V:2] z2|D2 d2 z2|d2 f2 g2|fg  f2  d2|D2  d2|]
W:Transcription (c) Jack Campin 2009, no mirroring or republication without permission

